src/shared/assets/me/popop-logo-large.svg

<svg preserveAspectRatio="none" width="100%" height="100%" overflow="visible" style="display: block;" viewBox="0 0 168.302 132.03" fill="none" xmlns="http://www.w3.org/2000/svg">
<g id="Group 2117132528">
<path id="Union" d="M9.19142 106.182C12.0849 105.813 20.4258 105.615 23.8301 106.182C27.2342 106.75 30.433 108.367 31.4893 111.8C32.8506 116.225 31.8293 121.671 30.4678 123.714C29.1061 125.756 26.8926 127.629 22.127 127.289C17.3619 126.948 15.6176 125.587 15.4893 126.607C15.0919 129.777 15.3776 131.504 11.5742 131.885C8.17023 132.225 3.9329 132.258 1.87209 128.65C0.5111 126.267 0.000626917 121.161 1.78804e-05 118.948C-0.000542367 116.735 0.000685057 112.14 1.87209 109.587C3.74364 107.034 6.29811 106.552 9.19142 106.182ZM77.2774 106.182C80.1709 105.813 88.5106 105.614 91.9151 106.181C95.3191 106.749 98.5178 108.366 99.5742 111.799C100.936 116.224 99.9153 121.671 98.5537 123.714C97.192 125.756 94.9788 127.628 90.2129 127.288C85.4474 126.947 83.7035 125.586 83.5752 126.607C83.1778 129.777 83.4635 131.503 79.6602 131.884C76.256 132.224 72.0189 132.257 69.958 128.649C68.5972 126.266 68.0866 121.161 68.086 118.948C68.0854 116.735 68.0864 112.139 69.958 109.586C71.8297 107.033 74.3841 106.552 77.2774 106.182ZM145.362 106.182C148.256 105.813 156.596 105.615 160 106.182C163.404 106.75 166.603 108.366 167.659 111.8C169.021 116.225 167.999 121.671 166.638 123.714C165.276 125.756 163.063 127.628 158.298 127.288C153.533 126.947 151.787 125.586 151.659 126.607C151.262 129.777 151.548 131.503 147.745 131.884C144.341 132.224 140.103 132.258 138.042 128.65C136.681 126.267 136.172 121.161 136.171 118.948C136.17 116.735 136.171 112.14 138.042 109.587C139.914 107.034 142.469 106.552 145.362 106.182ZM50.043 105.842C60.0842 105.842 64.5111 107.374 66.043 113.842C67.2925 119.118 66.47 125.387 63.6592 128.281C61.2445 130.767 56.1696 131.855 50.043 131.855C43.9166 131.855 40.746 130.696 38.9785 129.812C36.4203 128.533 34.6323 126.4 34.042 123.609C33.1583 119.43 33.5307 113.519 34.8936 111.289C36.7664 108.225 40.0012 105.841 50.043 105.842ZM118.129 105.842C128.17 105.842 132.597 107.374 134.129 113.842C135.378 119.118 134.556 125.387 131.745 128.281C129.33 130.767 124.256 131.855 118.129 131.855C112.003 131.855 108.832 130.696 107.064 129.812C104.506 128.533 102.718 126.4 102.128 123.609C101.244 119.43 101.617 113.519 102.98 111.289C104.852 108.225 108.087 105.841 118.129 105.842ZM49.7031 117.246C48.001 117.246 47.4903 118.097 47.4903 118.948C47.4904 119.799 48.1715 120.48 49.7031 120.48C51.2345 120.48 52.4255 119.969 52.4258 118.948C52.4258 117.927 51.4048 117.246 49.7031 117.246ZM117.789 117.246C116.087 117.246 115.576 118.097 115.576 118.948C115.576 119.799 116.257 120.48 117.789 120.48C119.32 120.48 120.511 119.969 120.512 118.948C120.512 117.927 119.491 117.246 117.789 117.246ZM14.9785 115.544C13.7877 115.544 13.446 116.395 13.4463 117.076C13.4468 117.757 13.7873 118.607 14.9785 118.607C16.1703 118.607 18.7231 118.607 18.7237 117.076C18.7237 115.544 16.1697 115.544 14.9785 115.544ZM83.0645 115.544C81.8736 115.544 81.5321 116.394 81.5322 117.075C81.5326 117.756 81.8726 118.607 83.0645 118.607C84.2565 118.607 86.8086 118.607 86.8086 117.075C86.8081 115.544 84.2557 115.544 83.0645 115.544ZM151.148 115.544C149.958 115.544 149.616 116.395 149.616 117.076C149.617 117.757 149.958 118.607 151.148 118.607C152.34 118.607 154.893 118.607 154.894 117.076C154.894 115.544 152.34 115.544 151.148 115.544Z" fill="var(--fill-0, black)"/>
<g id="Group 2117132527">
<path id="Vector 7429" d="M14.2508 73.842C12.9073 69.653 18.87 58.5473 23.5348 53.9458L33.1513 71.5208C33.1513 71.5208 15.5942 78.031 14.2508 73.842Z" fill="var(--fill-0, #F0DA9C)"/>
<path id="Vector 7428" d="M22.8707 53.9458C22.8707 53.9458 9.27512 72.184 15.2457 74.8368C19.2659 76.623 26.8511 66.8783 26.8511 66.8783" stroke="var(--stroke-0, black)" stroke-width="3.76927" stroke-linecap="round" stroke-linejoin="round"/>
<g id="Vector 7401">
<path d="M40.4524 13.4835C8.55203 34.567 27.4536 68.2052 27.4536 68.2052C27.4536 68.2052 17.8355 68.2052 19.1622 76.4952C20.4889 84.7853 36.2799 84.4537 48.2176 84.4537C60.1071 84.4537 66.1778 81.9535 68.2931 81.0823L68.3186 81.0718C68.4723 85.0924 88.3742 86.3046 113.183 85.6666C142.6 84.9102 143.182 70.1608 143.182 70.1608C143.182 70.1608 147.147 77.753 151.141 75.1688C157.712 70.9163 150.068 52.3603 147.976 46.3305C150.837 38.8653 149.95 15.3679 123.188 5.94469C103.851 -0.864281 60.245 0.402245 40.4524 13.4835Z" fill="var(--fill-0, #F0DA9C)"/>
<path d="M68.3186 81.0718C68.4723 85.0924 88.3742 86.3046 113.183 85.6666C142.6 84.9102 143.182 70.1608 143.182 70.1608C143.182 70.1608 147.147 77.753 151.141 75.1688C157.712 70.9163 150.068 52.3603 147.976 46.3305C150.837 38.8653 149.95 15.3679 123.188 5.94469C103.851 -0.864281 60.245 0.402245 40.4524 13.4835C8.55203 34.567 27.4536 68.2052 27.4536 68.2052C27.4536 68.2052 17.8355 68.2052 19.1622 76.4952C20.4889 84.7853 36.2799 84.4537 48.2176 84.4537C60.1553 84.4537 66.2269 81.9332 68.3186 81.0718ZM68.3186 81.0718C68.0334 73.6064 69.4601 70.1608 83.7228 70.1608" stroke="var(--stroke-0, black)" stroke-width="3.76927" stroke-linecap="round" stroke-linejoin="round"/>
</g>
<g id="Group 2117132525">
<path id="Vector 7399" d="M72.4725 46.5826C72.4725 46.5826 75.4926 46.6278 78.7266 46.3739C81.9606 46.12 82.9022 44.1883 82.9022 44.1883" stroke="var(--stroke-0, black)" stroke-width="3.4089" stroke-linecap="round" stroke-linejoin="round"/>
<circle id="Ellipse 111799" cx="53.0147" cy="38.1889" r="8.7252" fill="var(--fill-0, white)" stroke="var(--stroke-0, black)" stroke-width="3.4089"/>
<ellipse id="Ellipse 111800" cx="49.423" cy="37.0015" rx="5.80602" ry="7.19672" fill="var(--fill-0, black)"/>
<circle id="Ellipse 111801" cx="97.341" cy="32.9744" r="7.4215" fill="var(--fill-0, white)" stroke="var(--stroke-0, black)" stroke-width="3.4089"/>
<ellipse id="Ellipse 111802" cx="94.7345" cy="32.399" rx="4.33571" ry="5.94356" transform="rotate(15.0268 94.7345 32.399)" fill="var(--fill-0, black)"/>
</g>
</g>
</g>
</svg>

<svg xmlns="http://www.w3.org/2000/svg" fill="none" overflow="visible" preserveAspectRatio="none" style="display:block" viewBox="0 0 168.302 132.03"><path fill="var(--fill-0, black)" d="M9.191 106.182c2.894-.369 11.235-.567 14.64 0 3.403.568 6.602 2.185 7.658 5.618 1.362 4.425.34 9.871-1.021 11.914-1.362 2.042-3.575 3.915-8.341 3.575-4.765-.341-6.51-1.702-6.638-.682-.397 3.17-.111 4.897-3.915 5.278-3.404.34-7.641.373-9.702-3.235-1.36-2.383-1.871-7.489-1.872-9.702 0-2.213 0-6.808 1.872-9.361s4.426-3.035 7.32-3.405m68.086 0c2.894-.369 11.234-.568 14.638-.001 3.404.568 6.603 2.185 7.66 5.618 1.361 4.425.34 9.872-1.021 11.915-1.362 2.042-3.575 3.914-8.341 3.574s-6.51-1.702-6.638-.681c-.397 3.17-.112 4.896-3.915 5.277-3.404.34-7.641.373-9.702-3.235-1.36-2.383-1.871-7.488-1.872-9.701 0-2.213 0-6.809 1.872-9.362s4.426-3.034 7.32-3.404m68.085 0c2.894-.369 11.234-.567 14.638 0 3.404.568 6.603 2.184 7.659 5.618 1.362 4.425.34 9.871-1.021 11.914-1.362 2.042-3.575 3.914-8.34 3.574s-6.511-1.702-6.639-.681c-.397 3.17-.111 4.896-3.914 5.277-3.404.34-7.642.374-9.703-3.234-1.361-2.383-1.87-7.489-1.871-9.702s0-6.808 1.871-9.361c1.872-2.553 4.427-3.035 7.32-3.405m-95.319-.34c10.041 0 14.468 1.532 16 8 1.25 5.276.427 11.545-2.384 14.439-2.414 2.486-7.49 3.574-13.616 3.574s-9.297-1.159-11.065-2.043c-2.558-1.279-4.346-3.412-4.936-6.203-.884-4.179-.511-10.09.852-12.32 1.872-3.064 5.107-5.448 15.149-5.447m68.086 0c10.041 0 14.468 1.532 16 8 1.249 5.276.427 11.545-2.384 14.439-2.415 2.486-7.489 3.574-13.616 3.574s-9.297-1.159-11.065-2.043c-2.558-1.279-4.346-3.412-4.936-6.203-.884-4.179-.511-10.09.852-12.32 1.872-3.064 5.107-5.448 15.149-5.447m-68.426 11.404c-1.702 0-2.213.851-2.213 1.702s.681 1.532 2.213 1.532c1.531 0 2.722-.511 2.723-1.532s-1.021-1.702-2.723-1.702m68.086 0c-1.702 0-2.213.851-2.213 1.702s.681 1.532 2.213 1.532c1.531 0 2.722-.511 2.723-1.532s-1.021-1.702-2.723-1.702m-102.81-1.702c-1.191 0-1.533.851-1.533 1.532s.341 1.531 1.533 1.531 3.744 0 3.745-1.531c0-1.532-2.554-1.532-3.745-1.532m68.086 0c-1.191 0-1.533.85-1.533 1.531s.34 1.532 1.532 1.532c1.193 0 3.745 0 3.745-1.532 0-1.531-2.553-1.531-3.745-1.531m68.083 0c-1.19 0-1.532.851-1.532 1.532.001.681.342 1.531 1.532 1.531 1.192 0 3.745 0 3.746-1.531 0-1.532-2.554-1.532-3.746-1.532"/><path fill="var(--fill-0, #f0da9c)" d="M14.25 73.842c-1.343-4.189 4.62-15.295 9.285-19.896L33.15 71.52s-17.557 6.51-18.9 2.321"/><path stroke="var(--stroke-0, black)" stroke-linecap="round" stroke-linejoin="round" stroke-width="3.769" d="M22.87 53.946s-13.595 18.238-7.624 20.89c4.02 1.787 11.605-7.958 11.605-7.958"/><path fill="var(--fill-0, #f0da9c)" d="M40.452 13.484c-31.9 21.083-12.998 54.721-12.998 54.721s-9.619 0-8.292 8.29 17.118 7.959 29.056 7.959c11.89 0 17.96-2.5 20.075-3.372l.026-.01c.153 4.02 20.055 5.233 44.864 4.595 29.417-.757 29.999-15.506 29.999-15.506s3.965 7.592 7.959 5.008c6.571-4.253-1.073-22.809-3.165-28.838 2.861-7.466 1.974-30.963-24.788-40.386-19.337-6.81-62.943-5.543-82.736 7.538"/><path stroke="var(--stroke-0, black)" stroke-linecap="round" stroke-linejoin="round" stroke-width="3.769" d="M68.319 81.072c.153 4.02 20.055 5.233 44.864 4.595 29.417-.757 29.999-15.506 29.999-15.506s3.965 7.592 7.959 5.008c6.571-4.253-1.073-22.809-3.165-28.838 2.861-7.466 1.974-30.963-24.788-40.386-19.337-6.81-62.943-5.543-82.736 7.538-31.9 21.084-12.998 54.722-12.998 54.722s-9.619 0-8.292 8.29 17.118 7.959 29.056 7.959c11.937 0 18.009-2.52 20.1-3.382m0 0c-.286-7.466 1.141-10.911 15.404-10.911"/><path stroke="var(--stroke-0, black)" stroke-linecap="round" stroke-linejoin="round" stroke-width="3.409" d="M72.473 46.583s3.02.045 6.254-.21c3.234-.253 4.175-2.185 4.175-2.185"/><circle cx="53.015" cy="38.189" r="8.725" fill="var(--fill-0, white)" stroke="var(--stroke-0, black)" stroke-width="3.409"/><ellipse cx="49.423" cy="37.002" fill="var(--fill-0, black)" rx="5.806" ry="7.197"/><circle cx="97.341" cy="32.974" r="7.421" fill="var(--fill-0, white)" stroke="var(--stroke-0, black)" stroke-width="3.409"/><ellipse cx="94.734" cy="32.399" fill="var(--fill-0, black)" rx="4.336" ry="5.944" transform="rotate(15.027 94.734 32.399)"/></svg>
